!!!COM: Felix Mendelssohn
!!!CNT: Deutsch
!!!TXO: Deutsch
!!!OTL: Die Sterne schau'n in stiller Nacht
!!!LYR: Alb. Graf von Schlippenbach
!!!OPS: Op. 99
!!!ONM: No. 2
!!!ENC: Daniel Alt & Leigh VanHandel
!!!YOR: Sa2mmtliche Lieder fu2r eine Singstimme 
!!!YOR: Neu revidirt von Dr. L. Benda, Ausgabe fu2r mittlere Stimme
!!!YOR: Braunschweig. Henry Litolff's Verlag. Boston and New York: Arthur P. Schmidt.
!!!ODT: 1852/
!!NB: Date is publication date
**kern	**silbe
*staff1	*
=1-	=1
*clefG2	*
*k[]	*
*M2/4	*
2r	.
=2	=2
4r	.
8r	.
{16e	{Die
16cc	|
=3	=3
8.cc	Ster-
16b	-ne
8a	schau’n
8g	in
=4	=4
8.g	stil-
16f	-ler
8e	Nacht
8e	her-
=5	=5
8e	-ab
8e	zur
8e	La-
8e	-ger-
=6	=6
4f	-sta2t-
8e}	-te,}
{16e	{wo’s
16cc	|
=7	=7
8.cc	blon-
16b	-de
8a	Ma2d-
8g	-chen
=8	=8
8.g	sitzt
16f	und
8e	wacht
8e	an
=9	=9
8.e	kran-
16g-	-ker
8gn	Mut-
8a	-ter
=10	=10
4b	Bet-
8e}	-te.}
8r	.
=11	=11
{8e	{Was
16a-	blickst
16b	du
8dd	ein-
8cc	-sam
=12	=12
8b	zu
16cc	uns
16a	|
4a-}	auf?}
=13	=13
16r	.
{16e	{Willst
16a-	spa2h’n
16b	der
8dd	roll-
16cc	-en-
16cc	-den
=14	=14
8b	Wel-
16cc	-ten
16a	|
8a-}	Lauf,}
16r	.
{16e	{der
=15	=15
[2a	rol-
=16	=16
16a]	|
16e	|
16c	-len
16A	-den
8cc	Wel-
16b	-ten
16a	|
=17	=17
4.a-}	Lauf?}
{8dd-	{Ihr
=18	=18
*k[f#c#g#]	*
8cc#	Stern-
8cc#	-lein,
8cc#	ach!
8cc#	ver-
=19	=19
8.ee	-steht
16dd	ihr
8dd	nicht
8cc#	der
=20	=20
8b	Toch-
8b	-ter
8dd	ban-
8b	-gen
=21	=21
4a	Kum-
8g#}	-mer?}
{8g#	{Dass
=22	=22
8a	nicht
8a	das
8.cc#	treu’-
16b	-ste
=23	=23
8a	Au-
8a	-ge
8cc#	bricht,
8b	o
=24	=24
4a	schenkt
8g#	ihm,
8f#	o
=25	=25
[2b	schenkt
=26	=26
8b]	|
8e	ihm
8.b	su2-
16a	-ssen
=27	=27
[4.g#	Schlum-
16g#]	|
16f#	|
=28	=28
4e}	-mer.}
8r	.
{8e	{Ihr
=29	=29
8b	Stern-
8a	-lein
8dd	all’,
8cc#	hab’
=30	=30
8b	euch
16b	so
16a	|
8g#	gern!
16r	.
16e	doch
=31	=31
8.b	Mut-
16a	-ter-
8dd	-lieb’
16cc#	ist
16cc#	der
=32	=32
16b	scho2-
16ccn	|
16cc#	|
16a	-nste
8g#	Stern,
8r	.
=33	=33
4.a	ist
8a	der
=34	=34
8.a	scho2-
16e	-nste
4e}	Stern.}
=35	=35
*M6/8	*
4r	.
8r	.
4r	.
{8e	{Nun
=36	=36
8a	still,
8r	.
8a	du
4cc#	wei-
8cc#	-nend
=37	=37
4ee	Ma2d-
8dd	-chen,
8b	du!
8r	.
8e	Der
=38	=38
4a	Schlum-
8g#	-mer
8f#	senkt
8b	|
8dd	sich
=39	=39
4.a	nie-
8g#}	-der,}
8r	.
{8e	{ein
=40	=40
4a	hol-
8a	-der
4cc#	En-
8b	-gel
=41	=41
4a	schliesst
8a	ihr
4cc#	zu
8b	die
=42	=42
4.a	mu2-
4g#	-den,
8f#	die
=43	=43
[2.b	mu2-
=44	=44
4b]	|
8e	-den
4b	Au-
8a	-gen-
=45	=45
[4.g#	-li-
4g#]	|
8f#	|
=46	=46
4e}	-der;}
8r	.
4r	.
8r	.
=47	=47
{8e	{schau’
8e	nur,
8f#	wie
4g#	sanft
8a	sie
=48	=48
4cc#	ruht
8b	im
4.g#}	Bett!}
=49	=49
{4a	{Ja,
8r	.
4r	.
8r	.
=50	=50
4r	.
8a	wenn
4a	nicht
8a	der
=51	=51
[4.a	Mensch
8a]	|
8g#	sei-
8f#	-ne
=52	=52
4.e	En-
4cc#	|
8b	-gel
=53	=53
4a}	ha2tt!}
8r	.
4r	.
8r	.
=54	=54
{[2.a	{Ja!
=55	=55
2.a_	|
=56	=56
4.a]	|
8a	nicht
8g#	sei-
8f#	-ne
=57	=57
2.e	En-
=58	=58
4.cc#	|
4.b	-gel
=59	=59
4a}	ha2tt!}
8r	.
{8e	{nicht
g#q	sei-
8f#	|
8e	-ne
=60	=60
4.cc#	En-
4.b	-gel,
=61	=61
4.cc#	sei-
4.b	-ne
=62	=62
[2.a	En-
=63	=63
2.a_	|
=64	=64
4.a]	|
[4.cc#	|
=65	=65
4.cc#_	|
8cc#]	|
8b	|
8a	-gel
=66	=66
4.a}	ha2tt!}
4r	.
8r	.
==	==
*-	*-

